www/assets/icons/pivot_table_chart.svg

<svg xmlns="http://www.w3.org/2000/svg" width="24" height="24" viewBox="0 0 24 24" fill='currentColor'><path d="M9.5 7.5h11v-3c0-1.1-.9-2-2-2h-9zm-7 0h5v-5h-3c-1.1 0-2 .9-2 2zm2 13h3v-11h-5v9c0 1.1.9 2 2 2m8 1-4-4 4-4zm1-9 4-4 4 4zm.58 6H12.5v-2h1.58c1.33 0 2.42-1.08 2.42-2.42V12.5h2v1.58c0 2.44-1.98 4.42-4.42 4.42"/></svg>

<svg width="24" height="24" viewBox="0 0 24 24" xmlns="http://www.w3.org/2000/svg" fill='currentColor'><path d="M9.5 7.5H20.5V4.5C20.5 3.4 19.6 2.5 18.5 2.5H9.5V7.5ZM2.5 7.5H7.5V2.5H4.5C3.4 2.5 2.5 3.4 2.5 4.5V7.5ZM4.5 20.5H7.5V9.5H2.5V18.5C2.5 19.6 3.4 20.5 4.5 20.5ZM12.5 21.5L8.5 17.5L12.5 13.5V21.5ZM13.5 12.5L17.5 8.5L21.5 12.5H13.5Z"/><path d="M14.08 18.5H12.5V16.5H14.08C15.41 16.5 16.5 15.42 16.5 14.08V12.5H18.5V14.08C18.5 16.52 16.52 18.5 14.08 18.5Z"/></svg>
